X: 1
T: Song of the White Buffalo Maiden
C: Teton Sioux band 1911-1914
N: Derived from sioux001.krn
O: South Dakota, U.S.A.
N: Teton Sioux Music by Frances Densmore, 1918
Z: transcribed to **kern format by Craig Sapp
L: 1/16
M: 2/4
Q: 1/4=58
K: Bb clef=bass
%%linebreak <none>
D [I:setbarnb 1]| 
D4D A,/ A,/ A, G,/ G,/ ||  
[M:3/4]G,8-G,3 A, ||  
[M:2/4]A,4A, G,/ G,/ G, G,/ G,/ ||  
[M:3/4](B,2< G,2)G,4G,3 B, | 
(B, G,2) G,2< G,2 A, (G,2 F,) F, ||  
[M:2/4](F,2< D,2)D,4 | 
D,4D,4 | 
F,4F, D,/ D,/ D, D,/ D,/ ||  
[M:3/4](F,2< D,2)D,4D,4 ||  
[M:2/4]F,2> F,2 D,3 D, | 
D,7A, | 
A,4A, G,/ G,/ G, G,/ G,/ ||  
[M:3/4](B,2< G,2)G,4G,3 B, | 
(B, G,2) G,2< G,2 A, (G,2 F,) F, ||  
[M:2/4](F,2< D,2)D,4 | 
D,4D,4 | 
F,4F, D,/ D,/ D, D,/ D,/ ||  
[M:3/4](F,2< D,2)D,4D,4 ||  
[M:2/4]F,2> F,2 D,3 D, | 
D,8 |]  



